X:614
T:Stronsay Waltz, The
D:Jimmy Shand Plays Old Time
Z:Nigel Gatherer
L:1/8
M:3/4
K:A
e2 d2 | c3   Bcd | e2 c2 A2 | d3 cde | f2 a2 f2 |
        e2 c2 A2 | A2 c2 e2 | B6-    | B2 e2 d2 |
        c3   Bcd | e2 c2 A2 | d3 cde | f2 a2 f2 |
        e2 c2 A2 | B4    e2 | A6-    | A2      :|
e2    | a3   gaf | e2 c2 A2 | d3 cde | f2 a2 f2 |
        e2 c2 A2 | A2 c2 e2 | B6-    | B2 z2
e2    | a3   gaf | e2 c2 A2 | d3 cde | f2 a2 f2 |
        e2 c2 A2 | B4    e2 | A6-    | A2       |
e2    | a3   gaf | e2 c2 A2 | d3 cde | f2 a2 f2 |
        e2 c2 A2 | A2 c2 e2 | B6-    | B2 z2
e2 d2 | c3   Bcd | e2 c2 A2 | d3 cde | f2 a2 f2 |
        e2 c2 A2 | B4    e2 | A6-    | A2      |]
<end>
<start>
